icons/hand.svg

<svg width="24" height="24" viewBox="0 0 24 24" fill="none" xmlns="http://www.w3.org/2000/svg">
<path d="M16.9834 6.81474C16.9834 6.3236 17.195 5.85257 17.5716 5.50529C17.9483 5.158 18.4591 4.96289 18.9917 4.96289C19.5243 4.96289 20.0352 5.158 20.4118 5.50529C20.7884 5.85257 21 6.3236 21 6.81474V14.5925C21 15.5653 20.7922 16.5285 20.3885 17.4272C19.9848 18.3259 19.3931 19.1425 18.6471 19.8303C17.9012 20.5182 17.0156 21.0638 16.041 21.4361C15.0664 21.8083 14.0217 21.9999 12.9668 21.9999C8.53021 21.9999 6.54027 19.7777 3.2699 13.4153C3.13777 13.2047 3.05195 12.9722 3.01735 12.7309C2.98274 12.4897 3.00002 12.2446 3.06821 12.0095C3.1364 11.7745 3.25416 11.5541 3.41475 11.361C3.57534 11.168 3.77563 11.006 4.00415 10.8843C4.23267 10.7627 4.48495 10.6837 4.74658 10.652C5.0082 10.6203 5.27404 10.6365 5.52889 10.6995C5.78375 10.7626 6.02262 10.8714 6.23187 11.0196C6.44111 11.1679 6.61663 11.3527 6.74837 11.5635L8.95022 15.0801" stroke="#1E293B" stroke-width="2" stroke-linecap="round" stroke-linejoin="round"/>
<path d="M8.95022 15.0802L8.9502 5.3333C8.9502 4.84216 9.16178 4.37113 9.53841 4.02384C9.91504 3.67655 10.4259 3.48145 10.9585 3.48145C11.4911 3.48145 12.0019 3.67655 12.3786 4.02384C12.7552 4.37113 12.9668 4.84216 12.9668 5.3333" stroke="#1E293B" stroke-width="2" stroke-linecap="round" stroke-linejoin="round"/>
<path d="M16.9834 11.6296L16.9834 6.81482L16.9834 3.84598C16.9817 3.35695 16.7703 2.8883 16.3952 2.54239C16.0186 2.19511 15.5077 2 14.9751 2C14.4425 2 13.9317 2.19511 13.555 2.54239C13.1784 2.88968 12.9668 3.36071 12.9668 3.85185L12.9668 5.3333L12.9668 11.6296" stroke="#1E293B" stroke-width="2" stroke-linecap="round" stroke-linejoin="round"/>
</svg>

<svg
  width="24"
  height="24"
  viewBox="0 0 24 24"
  xmlns="http://www.w3.org/2000/svg"
  fill="none"
  stroke="currentColor"
  stroke-width="2"
  stroke-linecap="round"
  stroke-linejoin="round"
>
  <path d="M16.983 6.815c0-.491.212-.962.589-1.31a2.098 2.098 0 0 1 1.42-.542c.532 0 1.043.195 1.42.542.376.348.588.819.588 1.31v7.777a6.91 6.91 0 0 1-.611 2.835 7.397 7.397 0 0 1-1.742 2.403 8.109 8.109 0 0 1-2.606 1.606 8.627 8.627 0 0 1-3.074.564C8.53 22 6.54 19.778 3.27 13.415a1.756 1.756 0 0 1-.253-.684 1.712 1.712 0 0 1 .051-.722c.068-.235.186-.455.347-.648.16-.193.36-.355.59-.477A2.175 2.175 0 0 1 5.53 10.7c.254.064.493.172.702.32.21.149.385.334.516.544L8.95 15.08" />
  <path d="M8.95 15.08V5.333c0-.49.212-.962.588-1.31a2.098 2.098 0 0 1 1.42-.542c.533 0 1.044.196 1.42.543.377.347.589.818.589 1.31" />
  <path d="M16.983 11.63V3.846a1.782 1.782 0 0 0-.588-1.304A2.098 2.098 0 0 0 14.975 2c-.532 0-1.043.195-1.42.542a1.782 1.782 0 0 0-.588 1.31v7.778" />
</svg>
